resources/svg/pie-chart.svg

<svg xmlns="http://www.w3.org/2000/svg" viewBox="0 0 24 24" fill="currentColor"><path fill="none" stroke="currentColor" stroke-width="2" d="M10,23 C5.02943725,23 1,18.9705627 1,14 C1,9.02943725 5.02943725,5 10,5 L10,14 C10,14 10.7746374,14.7746374 11.1619561,15.1619561 L16.363961,20.363961 C14.7352814,21.9926407 12.4852814,23 10,23 Z M14,10 L14,1 C18.9705627,1 23,5.02943725 23,10 L14,10 Z M14,13 L22,13 C22,15.2037225 21.2079601,17.2224541 19.8930183,18.7870568 L14,13 Z"/></svg>

<svg viewBox="0 0 24 24"><path fill="none" stroke="currentColor" stroke-width="2" d="M10 23a9 9 0 0 1 0-18v9l1.162 1.162l5.202 5.202A8.972 8.972 0 0 1 10 23zm4-13V1a9 9 0 0 1 9 9h-9zm0 3h8a8.964 8.964 0 0 1-2.107 5.787L14 13z"/></svg>
